X:945
T: Baltrasna Reel (with piano acc)
C: BB
L: 1/8
M: 4/4
R: reel
Q: 1/4=175
V: 1 program 1 110 %fiddle
V: 2 bass volume = 70 program 1 01 m=D
K: D
[V:1] dB | "D"AF ~F2 "Em" EB, ~B,2|"D"A,DFA "Bm"BAFE|"D"AF ~F2 "Em" EB, ~B,2|\
"D"A,DFD "A"E2 dB|
[V:2] z2|D,2[A2D2F2]E,2[E2G2B2]|D,2[A2D2F2]B,,2[F2D2B2]|D,2[A2D2F2]E,2[E2G2B2]|\
D,2[A2D2F2]A,,2[A2C2E2]|
%
[V:1] "D"AF ~F2 "Em" EB, ~B,2|"D"A,DFA "Bm"BcdB|"D"AFDF "A7"GECE|"D"DF"A"EC "D"D2 :|
[V:2] D,2[A2D2F2]E,2[E2G2B2]|D,2[A2D2F2]B,,2[F2D2B2]|D,2[A2D2F2]A,,2[G2C2E2]|[D,,2A,,2F,2][A,,2E,2C2][D,,2A,,2F,2]:|
%
[V:1] GA|"Bm"BF ~F2 "G"GBdg|"A"eage "D"fd ~d2|"Bm"BF ~F2 "G"GBdg|"A"ecAc "D"d2 FA|
[V:2] z2|B,,2[F2D2B2]G,,2[G2D2B2]|A,,2[A2C2E2]D,2[A2D2F2]|B,,2[F2D2B2]G,,2[G2D2B2]|\
A,,2[A2C2E2]D,2[A2D2F2]|
%
[V:1] "Bm"BF ~F2 "G"GBdg|"A"eage "Bm"fB ~B2|"G"dBBG "Bm"FAdB|"A7"AGEC "D"D2 :|
[V:2] B,,2[F2D2B2]G,,2[G2D2B2]|A,,2[A2C2E2]B,,2[F2D2B2]|G,,2[G2D2B2]B,,2[F2D2B2]|\
A,,2[G2C2E2][D,2A,2F2]:|

%%%%%%%%%%%%%%%%%%%%%%%%%%%%%%%

